X:59
T: Arme Seele
N: D0062A
O: Europa, Mitteleuropa, Lothringen, Woelflingen
N: Variante zu D0062
R: geistliches Lied
M: 3/8
L: 1/16
K: G
C2 | G2G2G2 | =F2E2D2 | _B2A2G2 | A2z2
=F2 | A2_BBc2 | _B2A2G2 | F2G2A2 | G4z2

@@@ Tune index: 2581
